!!!COM: Scriabin, Alexander
!!!OTL@@FR: Prélude en do majeur
!!!OTL@@EN: Prelude in C Major
!!!OPR@@FR: 4 Préludes
!!!OPR@@EN: 4 Preludes
!!!OPS: 48
!!!ONM: 2
!!!ODT: 1905
!!!AGN: Prelude
**kern	**kern	**dynam
*staff2	*staff1	*staff1/2
*Ipiano	*Ipiano	*
*clefG2	*clefG2	*
*k[]	*k[]	*
*C:	*C:	*
*M4/2	*M4/2	*
*	*^	*
8ccL	1dd 1ff	1aa	.
8b-X	.	.	.
8a	.	.	.
8ccJ	.	.	.
8b-L	.	.	.
8c	.	.	.
8b-	.	.	.
8aJ	.	.	.
=1	=1	=1	=1
8a-XL	1dd-X 1ff	1bb-X	.
8g-X	.	.	.
8f	.	.	.
8a-J	.	.	.
8g-L	.	.	.
8A-XJ	.	.	.
12g-L	.	.	.
12.f	.	.	.
24e-XJk	.	.	.
8dnL	1gn 1cc 1ee	2bbn	.
8c	.	.	.
8B	.	.	.
8dJ	.	.	.
8cL	.	4.aa#X	.
8D	.	.	.
8.c	.	.	.
.	.	8aa#	.
16cJk	.	.	.
*clefF4	*	*	*
=2	=2	=2	=2
8BL	2.g 2.b 2.gg	4ee-X 4eee-X	.
8GG	.	.	.
8D	.	2dd 2ddd	.
8GJ	.	.	.
8BL	.	.	.
8d	.	.	.
*	*v	*v	*
8.e-X	4cc 4ff#X 4bb 4fff#X	.
16e-Jk	.	.
8gL	2.b 2.dd 2.gg 2.ddd	.
8GG	.	.
8D	.	.
8BJ	.	.
12e-L	.	.
12c#X	.	.
12dJ	.	.
8.e-L	4cc 4ff# 4bb 4fff#	.
16e-Jk	.	.
=3	=3	=3
8gL	2b 2dd 2gg 2ddd	.
8GG	.	.
8D	.	.
8BJ	.	.
12e-XL	4r	.
12c#X	.	.
12dJ	.	.
8.gL	4r	.
16gJk	.	.
8gL	1a 1cc 1een	.
8f	.	.
8en	.	.
8gJ	.	.
8fL	.	.
8G	.	.
8f	.	.
8eJ	.	.
=4	=4	=4
8e-XL	1a-X 1cc 1ff	.
8d-X	.	.
8c	.	.
8e-J	.	.
8d-L	.	.
8E-XJ	.	.
12d-L	.	.
12.c	.	.
24B-XJk	.	.
*	*^	*
8A-XL	1d-X 1g-X 1b-X	2ff	.
8G-X	.	.	.
8F	.	.	.
8A-J	.	.	.
8G-L	.	4.ee	.
8AA-X	.	.	.
8.G-	.	.	.
.	.	8ee	.
16G-Jk	.	.	.
=5	=5	=5	=5
8FL	2.d-X 2.f 2.dd-X	4b-- 4bb--	.
8DD-X	.	.	.
8AA-X	.	2a-X 2aa-X	.
8D-XJ	.	.	.
8FL	.	.	.
8A-X	.	.	.
8.d-X	4f 4cc-X	4ff	.
16A-Jk	.	.	.
8A-L	1d- 1g-X 1b-X	2ff	.
8G-X	.	.	.
8F	.	.	.
8A-J	.	.	.
8G-L	.	2ee	.
8AA-	.	.	.
8.G-	.	.	.
16G-Jk	.	.	.
=6	=6	=6	=6
8BL	1c 1f#X	2.ee	.
8A	.	.	.
8G#X	.	.	.
8BJ	.	.	.
8AL	.	.	.
8D	.	.	.
8.A	.	4ee	.
16AJk	.	.	.
*	*	*^	*
8AL	2.c\	1fn	2.ee	.
8Gn	.	.	.	.
8F#X	.	.	.	.
8AJ	.	.	.	.
8GL	.	.	.	.
8GG	.	.	.	.
8.G	4B\	.	4dd#X	.
16GJk	.	.	.	.
*	*	*v	*v	*
=7	=7	=7	=7
8GL	2.c 2.e 2.cc	4a-X 4aa-X	.
8CC	.	.	.
8GG	.	2g 2gg	.
8CJ	.	.	.
8EL	.	.	.
8G	.	.	.
*	*v	*v	*
8.A-X	4f 4b 4ee 4bb	.
16A-Jk	.	.
8cL	2.e 2.g 2.cc 2.gg	.
8CC	.	.
8GG	.	.
8EJ	.	.
12A-L	.	.
12F#X	.	.
12GJ	.	.
8.A-L	8f 8b 8ee 8bb	.
.	8r	.
32A-Jkk	.	.
32r	.	.
=8	=8	=8
0CC 0GG 0E 0c	0e 0g 0cc 0gg	.
==	==	==
*-	*-	*-
!!!system-decoration: {(*)}
!!!filter: flipper -a
!!!ENC: Bryan Jacob Bell
!!!END: November 2021 to April 2022
!!!PED: Günter Philipp
!!!PTL: Ausgewählte Klavierwerke (Edition Peters)
